X: 43352
T: Wren's Death, The
R: reel
M: 4/4
K: Amixolydian
cAAA cAAA|cAAA efed|cAAA AAcA|BGGB d2 Bd|
cAAA cAAA|cAAA efed|c2 Ac fecA|BGGB d2 Bd||
cAeA fAeA|cAeA cdeg|cAeA cAeg|BGGB d2 Bd|
cAeA fAeA|cAeA cdeg|afge faed|BGGB d2 Bd||

